X:496
T:Hungarian Jewish Wedding Dance
Z:Panda Smith
Z:Jack Campin, http://www.campin.me.uk/
F:Jack Campin's Nine-Note Tunebook
% last edit 16-03-2013
S:Muszikas CD
M:C|
L:1/8
K:GMin
 DG2A B2d2|cBAc d4  | DG2A B2d2|   cBA^F G2 G2:|
 dccc cBBB|AGAB c4  | dccc cBBB|   AGAB  G2 G2:|
^F2F2 F2ED|G4   GBAG|^F2F2 F2ED|[1^FBAF  G2 z2:|\
                                [2^FG2F  G2 z2|]

